!!!COM: Vivaldi, Antonio
!!!OTL: Concerto a violino solo, No. 12
!!!XEN: Violin Concerto No. 12 in C major
!!!OPR: Il Cimento dell'armonia e dell'inventione
!!!XEN: The Contest of Harmony and Invention
!!!OPS: Opus 8
!!!ONM: No. 12
!!!OMV: Movement 2.
!!!YEC: Copyright 1996, Center for Computer Assisted Research in the Humanities
!!!YEM: Rights to all derivative electronic formats reserved.
!!!YEM: Refer to licensing agreement for important restrictions.
!!!OMD: Largo
**kern	**kern	**Bnum
!cello	!violino principale	!continuo
!basso continuo	!	!
*Icello	*Ivioln	*Icemba
*Icemba	*	*
*ICstr	*ICstr	*ICklav
*ICklav	*	*
*clefF4	*clefG2	*
*k[b-e-a-]	*k[b-e-a-]	*k[b-e-a-]
*c:	*c:	*c:
*M3/4	*M3/4	*M3/4
*>[A,A,B,B]	*>[A,A,B,B]	*>[A,A,B,B]
*>A	*>A	*>A
=1-	=1-	=1-
4c\	4cc\	.
4e-\	[4gg\	6
4c\	16gg\LL]	.
.	(16ff\	.
.	16gg\	.
.	16aa-\JJ)	.
=2	=2	=2
4d\	4ff\	.
4Bn\	[4ff\	6 5
4G\	16ff\LL]	7
.	(16ee-\	.
.	16ff\	.
.	16gg\JJ)	.
=3	=3	=3
4C/	4ee-\	.
4c\	[4ee-\	.
4F#\	16ee-\LL]	7 5 n
.	(16dd\	.
.	16ee-\	.
.	16ff\JJ)	.
=4	=4	=4
2G\	2ddt\	.
4C/	4cc\	.
=5	=5	=5
4c\	4cc\	.
4e-\	[4gg\	6
4c\	16gg\LL]	.
.	(16ee-\	.
.	16dd\	.
.	16cc\JJ)	.
=6	=6	=6
4d\	(16ff#\LL	#
.	16gg\	.
.	16aan\)	.
.	16gg\JJ	.
4An\	(16ff#\LL	6\
.	16gg\	.
.	16aa\)	.
.	16gg\JJ	.
4D\	(16ff#\LL	#
.	16een\	.
.	16dd\)	.
.	16cc\JJ	.
=7	=7	=7
4G\	8b-/L	.
.	16an/L	.
.	16g/JJ	.
4D\	4.at/	4
4DD/	.	#
.	8g/	.
=8	=8	=8
2.GG/	2.g/	.
=9||	=9||	=9||
*>B	*>B	*>B
4G\	4g/	.
4B-\	[4dd\	6
4G\	16dd\LL]	.
.	(16cc\	.
.	16dd\	.
.	16ee-\JJ)	.
=10	=10	=10
4An\	4cc\	.
4F#\	[4cc\	6 5
4D\	16cc\LL]	.
.	(16b-\	.
.	16cc\	.
.	16dd\JJ)	.
=11	=11	=11
4GG/	4b-\	.
4G\	[4b-\	.
4C#/	16b-\LL]	6 5
.	(16an\	.
.	16b-\	.
.	16cc\JJ)	.
=12	=12	=12
2D\	2ant/	.
4GG/	4g/	.
=13	=13	=13
4Bn\	4dd\	6
4G\	[4gg\	.
4Bn\	16gg\LL]	.
.	(16ff\	.
.	16ee-\	.
.	16dd\JJ)	.
=14	=14	=14
4c\	4ee-\	.
4e-\	[4gg\	6
4c\	16gg\LL]	.
.	(16ff\	.
.	16gg\	.
.	16aa-\JJ)	.
=15	=15	=15
4d\	4ff\	.
4Bn\	[4ff\	6 5
4G\	16ff\LL]	.
.	(16ee-\	.
.	16ff\	.
.	16gg\JJ)	.
=16	=16	=16
4c\	4ee-\	.
4e-\	[4ee-\	6
4c\	16ee-\LL]	.
.	(16dd\	.
.	16ee-\	.
.	16ff\JJ)	.
=17	=17	=17
4Bn\	(16dd\LL	.
.	16cc\	.
.	16dd\)	.
.	16ee-\JJ	.
4F#\	(16dd\LL	6 5
.	16cc\	.
.	16dd\)	.
.	16ee-\JJ	.
4D\	(16cc\LL	7 #
.	16bn\	.
.	16cc\)	.
.	16dd\JJ	.
=18	=18	=18
4G\	[4bn\	n
4D\	16b\LL]	6 4
.	(16g\	.
.	16b\	.
.	16dd\JJ)	.
4BBn/	16gg\LL	6
.	(16ff\	.
.	16ee-\	.
.	16dd\JJ)	.
=19	=19	=19
8C\L	8ee-\L	.
8F\J	16dd\L	6
.	16cc\JJ	.
4G\	4.bnt\	4
4GG/	.	n
.	8cc\	.
=20	=20	=20
2.C/	2.cc\	.
==|!	==|!	==|!
*-	*-	*-
!!!CDT: 1678/3/4/-1741/7/28
!!!OCY: Italia
!!!ODE: Count Wenzeslaus von Morzin of Bohemia; Count Wenceslas of Morzin
!!!ODT: 1725///
!!!OPC: Venezia; Venice
!!!AGN: concerto
!!!AST: baroque
!!!AMT: simple triple
!!!PPR: Michel-Charles Le Ce`ne
!!!PC#: Le Cene No. 521
!!!PDT: 1725///
!!!PPP: Amsterdam
!!!SCT: RV 178
!!!SMA1: The cooperation of the following libraries is gratefully acknowledged:
!!!SMA2: Saechsische Landesbibliothek, Dresden; Biblioteca Nazionale
!!!SMA3: Universitaria, Turin; Henry Watson Music Library, Manchester.
!!!YOR: New York: Dover Publications, Inc. 1995
!!!AIN: cello cemba violn
!!!EEV: 1.0
!!!RDT: 1994/5/14/
!!!YER: 1996/10/31/
!!!YEP: Center for Computer Assisted Research in the Humanities
!!!YEN: United States of America
!!!EFL: 2/3
!!!ENC: Edmund Correia, Jr.
!!!EED: Eleanor Selfridge-Field
